dist/icons/sprite.svg

<svg xmlns="http://www.w3.org/2000/svg">
	<symbol id="instagram" viewBox="0 0 26 26">
		<path d="M12.8044 6.16996C9.25356 6.16996 6.38946 9.0391 6.38946 12.5962C6.38946 16.1532 9.25356 19.0223 12.8044 19.0223C16.3552 19.0223 19.2193 16.1532 19.2193 12.5962C19.2193 9.0391 16.3552 6.16996 12.8044 6.16996ZM12.8044 16.774C10.5098 16.774 8.63384 14.9004 8.63384 12.5962C8.63384 10.2919 10.5042 8.41829 12.8044 8.41829C15.1046 8.41829 16.9749 10.2919 16.9749 12.5962C16.9749 14.9004 15.099 16.774 12.8044 16.774ZM20.978 5.9071C20.978 6.74043 20.308 7.40598 19.4817 7.40598C18.6498 7.40598 17.9855 6.73484 17.9855 5.9071C17.9855 5.07936 18.6554 4.40821 19.4817 4.40821C20.308 4.40821 20.978 5.07936 20.978 5.9071ZM25.2267 7.42835C25.1318 5.42052 24.674 3.64199 23.2056 2.17667C21.7429 0.711337 19.9674 0.252724 17.9631 0.152052C15.8974 0.0346024 9.70579 0.0346024 7.64006 0.152052C5.64133 0.247131 3.86592 0.705745 2.39757 2.17107C0.92923 3.6364 0.477002 5.41493 0.376507 7.42276C0.259263 9.49212 0.259263 15.6946 0.376507 17.7639C0.471419 19.7718 0.92923 21.5503 2.39757 23.0156C3.86592 24.481 5.63574 24.9396 7.64006 25.0402C9.70579 25.1577 15.8974 25.1577 17.9631 25.0402C19.9674 24.9452 21.7429 24.4866 23.2056 23.0156C24.6684 21.5503 25.1262 19.7718 25.2267 17.7639C25.3439 15.6946 25.3439 9.49771 25.2267 7.42835ZM22.558 19.9843C22.1225 21.0805 21.2795 21.925 20.1796 22.3669C18.5326 23.0212 14.6245 22.8702 12.8044 22.8702C10.9843 22.8702 7.07059 23.0156 5.42917 22.3669C4.33489 21.9306 3.49185 21.0861 3.05079 19.9843C2.39757 18.3344 2.54832 14.4194 2.54832 12.5962C2.54832 10.7729 2.40316 6.85229 3.05079 5.20799C3.48627 4.11179 4.32931 3.26727 5.42917 2.82544C7.07617 2.17107 10.9843 2.32208 12.8044 2.32208C14.6245 2.32208 18.5382 2.17667 20.1796 2.82544C21.2739 3.26168 22.1169 4.1062 22.558 5.20799C23.2112 6.85788 23.0605 10.7729 23.0605 12.5962C23.0605 14.4194 23.2112 18.34 22.558 19.9843Z"/>
	</symbol>
	<symbol id="telegram" viewBox="0 0 26 26">
		<path d="M28.0201 2.25268C27.6351 6.65256 25.9493 17.338 25.096 22.2654C24.7318 24.3531 24.0242 25.049 23.3374 25.1163C21.839 25.2622 20.7047 24.05 19.2478 23.0174C16.9793 21.4124 15.689 20.4134 13.4933 18.842C10.9438 17.0349 12.5984 16.036 14.0448 14.4085C14.4298 13.9819 21.0273 7.5056 21.1522 6.92194C21.173 6.84337 21.1834 6.57399 21.0273 6.42807C20.8712 6.28216 20.6527 6.33828 20.4966 6.37675C20.2676 6.42433 16.6394 9.00964 9.61185 14.1279C8.58512 14.8911 7.65204 15.2615 6.81262 15.2391C5.88649 15.2166 4.11746 14.6778 2.79589 14.2177C1.18295 13.6564 -0.107396 13.3534 0.00707014 12.3881C0.062569 11.8868 0.704276 11.3742 1.93219 10.8504C9.45229 7.31853 14.468 4.98764 16.9793 3.85774C24.1491 0.647622 25.6372 0.0864132 26.6049 0.0639648C26.8234 0.0639648 27.2917 0.120087 27.6039 0.389468C27.8076 0.582678 27.9375 0.850734 27.9681 1.14149C28.0244 1.50857 28.0418 1.88135 28.0201 2.25268Z"/>
	</symbol>
	<symbol id="untappd" viewBox="0 0 29 26">
		<path d="M17.8732 2.58597C14.2269 10.6605 14.0076 10.2772 13.8568 11.3212L13.6192 12.9755C13.5324 13.5807 13.3177 14.1607 12.9932 14.66L6.18956 25.1403C5.8423 25.6749 5.25743 25.9573 4.66342 25.8766C2.822 25.6245 1.10851 24.2526 0.308887 22.4219C0.0484372 21.8267 0.103269 21.1207 0.450535 20.5861L7.25421 10.1007C7.57863 9.60141 8.00357 9.19289 8.49705 8.90542L9.83585 8.12368C10.6812 7.62942 10.2791 7.52351 16.0318 1.11832C16.0775 0.876236 16.0775 0.750149 16.1963 0.714845C16.3334 0.679541 16.4979 0.664411 16.4842 0.482846L16.4659 0.250847C16.4568 0.155022 16.5253 0.0692831 16.6121 0.0692831C16.8177 0.0642396 17.2153 0.129805 17.7818 0.573629C18.3439 1.0225 18.5312 1.42093 18.5906 1.6378C18.618 1.72858 18.5632 1.82441 18.481 1.84962L18.2753 1.9051C18.12 1.95049 18.1611 2.12701 18.1702 2.27832C18.1748 2.41953 18.0651 2.45988 17.8732 2.58597ZM10.0506 1.9051C10.206 1.95049 10.1648 2.12701 10.1557 2.27832C10.1466 2.41449 10.2517 2.45484 10.4481 2.58092C10.8091 3.38283 11.1472 4.11918 11.4625 4.80004C11.4945 4.86561 11.5676 4.8757 11.6133 4.82526C12.1251 4.22005 12.7374 3.50388 13.4639 2.67675C13.5233 2.60614 13.5278 2.50023 13.4684 2.42962C13.1029 2.01606 12.7145 1.57728 12.2987 1.11328C12.253 0.876236 12.253 0.745106 12.1342 0.709802C11.9971 0.669454 11.8326 0.659367 11.8463 0.477803C11.8601 0.311369 11.9103 0.0692831 11.7184 0.0642396C11.5128 0.0591962 11.1153 0.119718 10.5487 0.568585C9.98664 1.01745 9.7993 1.41589 9.7399 1.63275C9.67593 1.84458 9.9044 1.86475 10.0506 1.9051ZM27.8663 20.581L21.0672 10.0957C20.464 9.16263 19.8517 8.9155 18.4901 8.12368C17.9783 7.82612 17.8412 7.57394 17.0965 6.66612C17.0508 6.61064 16.9639 6.62073 16.932 6.69134C14.8164 11.1699 14.7798 10.8673 14.693 11.4725C14.6153 12.0122 14.6336 12.4812 14.7067 12.9755C14.7935 13.5807 15.0083 14.1607 15.3327 14.66L22.1364 25.1453C22.4836 25.6799 23.0594 25.9624 23.6488 25.8867C25.4902 25.6396 27.2129 24.2728 28.0216 22.4269C28.2684 21.8267 28.2181 21.1207 27.8663 20.581Z"/>
	</symbol>
	<symbol id="vk" viewBox="0 0 26 26">
		<path d="M1.97839 1.88048C0.21875 3.69699 0.21875 6.62072 0.21875 12.4624V13.5004C0.21875 19.3421 0.21875 22.2658 1.97839 24.0823C3.73804 25.8988 6.57022 25.8988 12.229 25.8988H13.2345C18.8933 25.8988 21.7255 25.8988 23.4851 24.0823C25.2448 22.2658 25.2448 19.3421 25.2448 13.5004V12.4624C25.2448 6.62072 25.2448 3.69699 23.4851 1.88048C21.7255 0.0639648 18.8933 0.0639648 13.2345 0.0639648H12.229C6.57022 0.0639648 3.73804 0.0639648 1.97839 1.88048ZM4.44189 7.924H7.29643C7.39139 12.8545 9.49738 14.9421 11.1676 15.3688V7.924H13.8602V12.1741C15.5081 11.9895 17.2342 10.0519 17.8208 7.924H20.5133C20.2899 9.02544 19.8541 10.075 19.2229 10.9977C18.5917 11.9203 17.7873 12.6988 16.8488 13.2813C17.8934 13.8176 18.8151 14.573 19.5525 15.5072C20.2954 16.4357 20.8317 17.514 21.139 18.6732H18.1727C17.9046 17.6697 17.3459 16.7644 16.5806 16.0839C15.8097 15.3977 14.8657 14.9652 13.8602 14.8325V18.6732H13.5362C7.8327 18.6732 4.57596 14.6365 4.44189 7.924Z"/>
	</symbol>
	<symbol id="youtube" viewBox="0 0 29 26">
		<path d="M27.5171 3.62218C27.1938 2.21902 26.2444 1.11781 25.0385 0.744822C22.8524 0.0639648 14.0875 0.0639648 14.0875 0.0639648C14.0875 0.0639648 5.32263 0.0639648 3.13654 0.744822C1.9306 1.11781 0.981242 2.21902 0.657947 3.62218C0.072937 6.16207 0.072937 11.455 0.072937 11.455C0.072937 11.455 0.072937 16.7479 0.657947 19.2878C0.981242 20.691 1.9306 21.7448 3.13654 22.1178C5.32263 22.7987 14.0875 22.7987 14.0875 22.7987C14.0875 22.7987 22.8524 22.7987 25.0385 22.1178C26.2444 21.7448 27.1938 20.685 27.5171 19.2878C28.1021 16.7479 28.1021 11.455 28.1021 11.455C28.1021 11.455 28.1021 6.16207 27.5171 3.62218ZM11.2241 16.2624V6.64755L18.5469 11.455L11.2241 16.2624Z"/>
	</symbol>
	<symbol id="arrow" viewBox="0 0 22 17">
		<path d="M1.41603 0.72265C1.26285 0.492886 0.952414 0.430799 0.72265 0.583975C0.492886 0.737151 0.430799 1.04759 0.583975 1.27735L1.41603 0.72265ZM11 16L10.584 16.2774C10.6767 16.4164 10.8328 16.5 11 16.5C11.1672 16.5 11.3233 16.4164 11.416 16.2774L11 16ZM21.416 1.27735C21.5692 1.04759 21.5071 0.737151 21.2774 0.583975C21.0476 0.430799 20.7372 0.492886 20.584 0.72265L21.416 1.27735ZM19.3145 3.5282L19.7306 3.80555L19.7306 3.80555L19.3145 3.5282ZM0.583975 1.27735L10.584 16.2774L11.416 15.7226L1.41603 0.72265L0.583975 1.27735ZM11.416 16.2774L19.7306 3.80555L18.8985 3.25085L10.584 15.7226L11.416 16.2774ZM19.7306 3.80555L21.416 1.27735L20.584 0.72265L18.8985 3.25085L19.7306 3.80555Z" fill="white"/>
	</symbol>
	<symbol id="clock" viewBox="0 0 20 20">
		<path d="M464 256A208 208 0 1 1 48 256a208 208 0 1 1 416 0zM0 256a256 256 0 1 0 512 0A256 256 0 1 0 0 256zM232 120l0 136c0 8 4 15.5 10.7 20l96 64c11 7.4 25.9 4.4 33.3-6.7s4.4-25.9-6.7-33.3L280 243.2 280 120c0-13.3-10.7-24-24-24s-24 10.7-24 24z"/>
	</symbol>
	<symbol id="user" viewBox="0 0 20 20">
		<path d="M438.6 105.4c12.5 12.5 12.5 32.8 0 45.3l-256 256c-12.5 12.5-32.8 12.5-45.3 0l-128-128c-12.5-12.5-12.5-32.8 0-45.3s32.8-12.5 45.3 0L160 338.7 393.4 105.4c12.5-12.5 32.8-12.5 45.3 0z"/>
	</symbol>
	<symbol id="location" viewBox="0 0 20 20">
		<path d="M215.7 499.2C267 435 384 279.4 384 192C384 86 298 0 192 0S0 86 0 192c0 87.4 117 243 168.3 307.2c12.3 15.3 35.1 15.3 47.4 0zM192 128a64 64 0 1 1 0 128 64 64 0 1 1 0-128z"/>
	</symbol>
	<symbol id="check" viewBox="0 0 20 20">
		<path d="M96 128a128 128 0 1 1 256 0A128 128 0 1 1 96 128zM0 482.3C0 383.8 79.8 304 178.3 304l91.4 0C368.2 304 448 383.8 448 482.3c0 16.4-13.3 29.7-29.7 29.7L29.7 512C13.3 512 0 498.7 0 482.3zM504 312l0-64-64 0c-13.3 0-24-10.7-24-24s10.7-24 24-24l64 0 0-64c0-13.3 10.7-24 24-24s24 10.7 24 24l0 64 64 0c13.3 0 24 10.7 24 24s-10.7 24-24 24l-64 0 0 64c0 13.3-10.7 24-24 24s-24-10.7-24-24z"/>
	</symbol>
</svg>

<svg xmlns="http://www.w3.org/2000/svg"><symbol id="instagram" viewBox="0 0 26 26"><path d="M12.804 6.17a6.41 6.41 0 00-6.415 6.426 6.41 6.41 0 006.415 6.426 6.41 6.41 0 006.415-6.426 6.41 6.41 0 00-6.415-6.426zm0 10.604a4.178 4.178 0 010-8.356 4.178 4.178 0 010 8.356zm8.174-10.867c0 .833-.67 1.499-1.496 1.499a1.494 1.494 0 01-1.497-1.499 1.498 1.498 0 112.993 0zm4.249 1.521c-.095-2.007-.553-3.786-2.021-5.251C21.743.71 19.967.253 17.963.152 15.897.035 9.706.035 7.64.152c-1.999.095-3.774.554-5.242 2.02C.929 3.635.477 5.414.377 7.421c-.118 2.07-.118 8.273 0 10.342.094 2.008.552 3.786 2.02 5.252 1.47 1.465 3.24 1.925 5.243 2.025 2.066.118 8.257.118 10.323 0 2.004-.095 3.78-.553 5.243-2.024 1.462-1.466 1.92-3.244 2.02-5.252.118-2.07.118-8.266 0-10.336zm-2.669 12.556a4.226 4.226 0 01-2.378 2.383c-1.647.654-5.556.503-7.376.503-1.82 0-5.733.146-7.375-.503a4.226 4.226 0 01-2.378-2.383c-.653-1.65-.503-5.565-.503-7.388 0-1.823-.145-5.744.503-7.388a4.226 4.226 0 012.378-2.383c1.647-.654 5.555-.503 7.375-.503 1.82 0 5.734-.145 7.376.503a4.226 4.226 0 012.378 2.383c.653 1.65.503 5.565.503 7.388 0 1.823.15 5.744-.503 7.388z"/></symbol><symbol id="telegram" viewBox="0 0 26 26"><path d="M28.02 2.253c-.385 4.4-2.07 15.085-2.924 20.012-.364 2.088-1.072 2.784-1.759 2.851-1.498.146-2.632-1.066-4.09-2.099-2.268-1.605-3.558-2.604-5.754-4.175-2.55-1.807-.895-2.806.552-4.433.385-.427 6.982-6.903 7.107-7.487.021-.079.031-.348-.125-.494-.156-.146-.374-.09-.53-.051-.23.047-3.858 2.633-10.885 7.75-1.027.764-1.96 1.134-2.8 1.112-.926-.022-2.695-.561-4.016-1.021-1.613-.562-2.903-.865-2.789-1.83.056-.501.697-1.014 1.925-1.538 7.52-3.53 12.536-5.862 15.048-6.992C24.15.648 25.637.086 26.605.064c.218 0 .687.056.999.325.204.194.334.462.364.752.056.368.074.74.052 1.112z"/></symbol><symbol id="untappd" viewBox="0 0 29 26"><path d="M17.873 2.586c-3.646 8.075-3.865 7.691-4.016 8.735l-.238 1.655a4.194 4.194 0 01-.626 1.684L6.19 25.14c-.348.535-.933.817-1.527.737-1.841-.252-3.554-1.624-4.354-3.455a1.965 1.965 0 01.142-1.836l6.803-10.485c.325-.5.75-.908 1.243-1.196l1.339-.781c.845-.495.443-.6 6.196-7.006.046-.242.046-.368.164-.403.137-.035.302-.05.288-.232L16.466.25c-.01-.096.06-.182.146-.182.206-.005.603.06 1.17.505.562.449.75.847.809 1.064a.173.173 0 01-.11.212l-.206.055c-.155.045-.114.222-.105.373.005.142-.105.182-.297.308zm-7.822-.68c.155.044.114.221.105.372-.01.136.096.177.292.303.361.802.7 1.538 1.014 2.219.033.066.106.076.151.025.512-.605 1.124-1.321 1.85-2.148a.194.194 0 00.005-.247c-.365-.414-.754-.853-1.17-1.317-.045-.237-.045-.368-.164-.403-.137-.04-.301-.05-.288-.232.014-.167.064-.409-.128-.414-.205-.005-.603.056-1.17.505-.561.448-.749.847-.808 1.064-.064.212.164.232.31.272zM27.866 20.58l-6.799-10.485c-.603-.933-1.215-1.18-2.577-1.972-.512-.298-.649-.55-1.393-1.458a.097.097 0 00-.165.025c-2.116 4.479-2.152 4.176-2.239 4.782a4.96 4.96 0 00.014 1.502 4.17 4.17 0 00.626 1.685l6.803 10.485c.348.535.923.817 1.513.742 1.841-.247 3.564-1.614 4.373-3.46.246-.6.196-1.306-.156-1.846z"/></symbol><symbol id="vk" viewBox="0 0 26 26"><path d="M1.978 1.88C.218 3.697.218 6.62.218 12.462V13.5c0 5.842 0 8.766 1.76 10.582C3.738 25.9 6.57 25.9 12.23 25.9h1.006c5.658 0 8.49 0 10.25-1.817 1.76-1.816 1.76-4.74 1.76-10.582v-1.038c0-5.841 0-8.765-1.76-10.582C21.725.064 18.893.064 13.235.064h-1.006c-5.659 0-8.491 0-10.25 1.816zm2.464 6.044h2.854c.095 4.93 2.201 7.018 3.872 7.445V7.924h2.692v4.25c1.648-.184 3.374-2.122 3.96-4.25h2.693a8.404 8.404 0 01-1.29 3.074 7.98 7.98 0 01-2.374 2.283 8.23 8.23 0 012.703 2.226 8.575 8.575 0 011.587 3.166h-2.966a5.307 5.307 0 00-1.592-2.59 5.087 5.087 0 00-2.72-1.25v3.84h-.325c-5.703 0-8.96-4.036-9.094-10.749z"/></symbol><symbol id="youtube" viewBox="0 0 29 26"><path d="M27.517 3.622c-.323-1.403-1.273-2.504-2.479-2.877-2.186-.681-10.95-.681-10.95-.681s-8.765 0-10.951.68C1.93 1.119.98 2.22.657 3.623c-.584 2.54-.584 7.833-.584 7.833s0 5.293.585 7.833c.323 1.403 1.273 2.457 2.479 2.83 2.186.68 10.95.68 10.95.68s8.765 0 10.951-.68c1.206-.373 2.156-1.433 2.48-2.83.584-2.54.584-7.833.584-7.833s0-5.293-.585-7.833zm-16.293 12.64V6.648l7.323 4.807-7.323 4.807z"/></symbol><symbol id="arrow" viewBox="0 0 22 17"><path d="M1.416.723a.5.5 0 00-.832.554l.832-.554zM11 16l-.416.277a.5.5 0 00.832 0L11 16zM21.416 1.277a.5.5 0 10-.832-.554l.832.554zm-2.102 2.251l.417.278-.417-.278zM.584 1.278l10 15 .832-.555-10-15-.832.554zm10.832 15l8.315-12.472-.833-.555-8.314 12.472.832.554zm8.315-12.472l1.685-2.529-.832-.554-1.686 2.528.833.555z" fill="#fff"/></symbol><symbol id="clock" viewBox="0 0 20 20"><path d="M464 256a208 208 0 11-416 0 208 208 0 11416 0zM0 256a256 256 0 10512 0 256 256 0 10-512 0zm232-136v136c0 8 4 15.5 10.7 20l96 64c11 7.4 25.9 4.4 33.3-6.7s4.4-25.9-6.7-33.3L280 243.2V120c0-13.3-10.7-24-24-24s-24 10.7-24 24z"/></symbol><symbol id="user" viewBox="0 0 20 20"><path d="M438.6 105.4c12.5 12.5 12.5 32.8 0 45.3l-256 256c-12.5 12.5-32.8 12.5-45.3 0l-128-128c-12.5-12.5-12.5-32.8 0-45.3s32.8-12.5 45.3 0L160 338.7l233.4-233.3c12.5-12.5 32.8-12.5 45.3 0z"/></symbol><symbol id="location" viewBox="0 0 20 20"><path d="M215.7 499.2C267 435 384 279.4 384 192 384 86 298 0 192 0S0 86 0 192c0 87.4 117 243 168.3 307.2 12.3 15.3 35.1 15.3 47.4 0zM192 128a64 64 0 110 128 64 64 0 110-128z"/></symbol><symbol id="check" viewBox="0 0 20 20"><path d="M96 128a128 128 0 11256 0 128 128 0 11-256 0zM0 482.3C0 383.8 79.8 304 178.3 304h91.4c98.5 0 178.3 79.8 178.3 178.3 0 16.4-13.3 29.7-29.7 29.7H29.7C13.3 512 0 498.7 0 482.3zM504 312v-64h-64c-13.3 0-24-10.7-24-24s10.7-24 24-24h64v-64c0-13.3 10.7-24 24-24s24 10.7 24 24v64h64c13.3 0 24 10.7 24 24s-10.7 24-24 24h-64v64c0 13.3-10.7 24-24 24s-24-10.7-24-24z"/></symbol></svg>
